usr/share/icons/biglinux-icons-material/scalable/apps/scribus.svg

<?xml version="1.0" encoding="UTF-8" standalone="no"?>
<svg
   width="24"
   height="24"
   viewBox="0 0 6.349875 6.349875"
   version="1.1"
   id="svg58600"
   sodipodi:docname="scribus.svg"
   xml:space="preserve"
   inkscape:version="1.2.2 (b0a8486541, 2022-12-01)"
   xmlns:inkscape="http://www.inkscape.org/namespaces/inkscape"
   xmlns:sodipodi="http://sodipodi.sourceforge.net/DTD/sodipodi-0.dtd"
   xmlns="http://www.w3.org/2000/svg"
   xmlns:svg="http://www.w3.org/2000/svg"><defs
     id="defs58604"><radialGradient
       id="paint0_radial_2_150"
       cx="0"
       cy="0"
       r="1"
       gradientUnits="userSpaceOnUse"
       gradientTransform="matrix(0,5.8207186,-5.8207186,0,3.1749321,0.26459258)"><stop
         stop-color="#9BDCFF"
         id="stop58731" /><stop
         offset="1"
         stop-color="#006AE8"
         id="stop58733" /></radialGradient><radialGradient
       id="paint1_radial_2_150"
       cx="0"
       cy="0"
       r="1"
       gradientUnits="userSpaceOnUse"
       gradientTransform="matrix(0,5.8207186,-6.5979698,0,3.1749321,0.264582)"><stop
         stop-color="#777777"
         id="stop58736" /><stop
         offset="1"
         stop-color="#222222"
         id="stop58738" /></radialGradient></defs><sodipodi:namedview
     id="namedview58602"
     pagecolor="#ffffff"
     bordercolor="#000000"
     borderopacity="0.25"
     inkscape:showpageshadow="2"
     inkscape:pageopacity="0.0"
     inkscape:pagecheckerboard="0"
     inkscape:deskcolor="#d1d1d1"
     showgrid="false"
     inkscape:zoom="6.828125"
     inkscape:cx="19.91762"
     inkscape:cy="23.286041"
     inkscape:window-width="2560"
     inkscape:window-height="998"
     inkscape:window-x="1680"
     inkscape:window-y="0"
     inkscape:window-maximized="1"
     inkscape:current-layer="svg58600" /><path
     fill-rule="evenodd"
     clip-rule="evenodd"
     d="m 2.5389021,0.29464601 c 0.031707,3.3602e-4 0.062015,-0.003701 0.09092,-0.0121203 0.3798812,-0.0248907 0.7597096,-0.0238808 1.1395379,0.003 0.3444014,0.0268282 0.6777963,0.10155302 1.0001582,0.22416382 C 5.3054477,0.73033445 5.6721794,1.1130335 5.8696605,1.6577892 5.9826089,1.9857708 6.0492826,2.3230365 6.069708,2.6695704 6.097938,3.104722 6.087832,3.5389211 6.039387,3.9721678 6.00314,4.2766708 5.924322,4.5695058 5.8029864,4.8506465 5.5779364,5.338132 5.2132419,5.6743844 4.7089031,5.8594038 4.3002093,5.9974872 3.8799534,6.0701932 3.448109,6.0774956 2.96237,6.1028157 2.4815125,6.0664627 2.0054941,5.9685159 1.1293199,5.7733366 0.58883705,5.2391534 0.38405359,4.3660191 0.29714232,3.9729618 0.25774822,3.5751157 0.26585331,3.1724807 0.25615202,2.744314 0.30161104,2.3222431 0.40223804,1.9062231 0.61691408,1.0898329 1.1351671,0.58394102 1.9569996,0.38855272 2.1484986,0.34173298 2.3424661,0.31043603 2.5389021,0.29464601 Z"
     fill="url(#paint0_radial_2_150)"
     id="path58723"
     style="fill:url(#paint0_radial_2_150);stroke-width:0.264578" /><path
     d="m 5.9376568,2.6773492 5.29e-5,7.938e-4 C 5.965411,3.1053837 5.9555158,3.5316455 5.9079711,3.9570342 5.8732849,4.2481231 5.7980389,4.5279145 5.6822066,4.7966994 5.4720787,5.2509271 5.1349532,5.5617799 4.6649302,5.7346288 4.2697034,5.8680026 3.8635231,5.9381687 3.4458865,5.945233 l -0.00233,5.29e-5 -0.00233,1.058e-4 C 2.967106,5.9701033 2.4978581,5.9346763 2.0332193,5.8391636 1.6154398,5.7459263 1.2853469,5.5738447 1.0359952,5.3273902 0.7866039,5.0809092 0.61082349,4.7529911 0.51303807,4.3366245 0.42852388,3.9540974 0.39022619,3.5669932 0.39811327,3.1751265 l 5.82e-5,-0.00283 -6.349e-5,-0.00283 C 0.38867577,2.7532303 0.43279946,2.3430442 0.53050816,1.9386048 0.63281523,1.5502994 0.8052937,1.2425209 1.0443427,1.0091763 1.2836509,0.77557495 1.5960569,0.61034062 1.9875981,0.5172541 v 2.65e-6 l 8.202e-4,-2.0108e-4 c 0.1828869,-0.0447137 0.3680758,-0.0747407 0.5556299,-0.0901047 0.03643,-1.1377e-4 0.072359,-0.004432 0.107469,-0.0132633 0.3693775,-0.0236163 0.7387021,-0.0223542 1.1080267,0.003762 0.331093,0.0258361 0.6513913,0.0975658 0.9612652,0.21524753 0.5002643,0.20642914 0.8394535,0.5605405 1.024129,1.0691681 0.108821,0.3162661 0.1730341,0.6413215 0.1927187,0.9754839 z"
     stroke="#fafafa"
     stroke-opacity="0.125"
     id="path58725"
     style="fill:none;stroke-width:0.264578" /><path
     fill-rule="evenodd"
     clip-rule="evenodd"
     d="m 2.6842455,0.52941147 c -0.00267,1.7197e-4 -0.00537,3.4924e-4 -0.00807,5.2386e-4 -0.026458,0.007705 -0.05418,0.011398 -0.083191,0.0110911 -0.051624,0.004149 -0.1030612,0.009469 -0.1543126,0.0159593 V 1.2117082 H 1.455841 V 0.86631202 C 1.3676571,0.91915621 1.285794,0.97847197 1.2102596,1.0442567 V 1.2117082 H 1.043578 C 0.97844156,1.2871791 0.91954383,1.3690343 0.86689013,1.4572737 H 1.2102596 V 2.4395306 H 0.55659556 c -0.0116229,0.081604 -0.0209731,0.163459 -0.0280559,0.2455708 H 1.2102596 V 3.6673477 H 0.52940222 c 0.007109,0.082072 0.016425,0.1639061 0.0279447,0.2455549 H 1.2102596 v 0.982749 H 0.86927398 c 0.0530585,0.088237 0.11244306,0.1700973 0.17815632,0.2455549 H 1.2102596 V 5.303975 C 1.2857806,5.369696 1.3676413,5.4289882 1.455841,5.4818773 V 5.1412065 h 0.982831 v 0.6489308 c 0.081707,0.01135 0.1635675,0.020769 0.2455735,0.028204 V 5.1412065 h 0.9818494 v 0.679516 c 0.082337,-0.00656 0.1641972,-0.015795 0.2455814,-0.027648 V 5.1412065 H 4.8940019 V 5.4838617 C 4.98208,5.4315546 5.0639405,5.3725007 5.1395834,5.3067001 V 5.1412065 H 5.3045478 C 5.369634,5.0659341 5.4286879,4.9840736 5.4816564,4.8956516 h -0.342073 v -0.982749 h 0.6555187 c 2.91e-4,-0.0023 5.556e-4,-0.00463 8.467e-4,-0.00693 0.00889,-0.079506 0.016351,-0.1590644 0.022436,-0.238623 H 5.1395834 V 2.6851014 H 5.821851 C 5.8163213,2.6026641 5.8079077,2.520809 5.7966367,2.4395306 H 5.1395834 V 1.4572737 H 5.4850959 C 5.4326565,1.3691216 5.3736556,1.287269 5.3080667,1.2117082 H 5.1395834 V 1.0438016 C 5.0641786,0.97877095 4.9823181,0.91993142 4.8940019,0.86728567 V 1.2117082 H 3.912179 V 0.55341135 c -0.064028,-0.008768 -0.1284527,-0.0156762 -0.1933272,-0.0207297 -0.017409,-0.001233 -0.034845,-0.002408 -0.052254,-0.003522 V 1.2122109 H 2.6842455 Z M 2.4381746,1.4572737 H 1.4563411 L 1.455841,2.4395306 h 0.9823336 z m 1.2279203,0 H 2.6842455 v 0.9822569 h 0.9818494 z m 1.2284097,0 H 3.912179 v 0.9822569 h 0.9823256 z m -2.45633,1.2278277 H 1.4563411 L 1.455841,3.6673477 h 0.9823336 z m 1.2279203,0 H 2.6842455 v 0.9822463 h 0.9818494 z m 1.2284097,0 H 3.912179 v 0.9822463 h 0.9823256 z m -2.45633,1.2278012 H 1.4563411 l -5.001e-4,0.982749 h 0.9823336 z m 1.2279203,0 H 2.6842455 v 0.982749 h 0.9818494 z m 1.2284097,0 H 3.912179 v 0.982749 h 0.9823256 z"
     fill="#fafafa"
     fill-opacity="0.125"
     id="path58727"
     style="stroke-width:0.264578" /><path
     d="M 3.0651248,1.1906016 A 0.22045862,0.22045862 0 0 0 2.938434,1.5915112 c -0.1616974,0.4884263 -0.4567536,1.2852446 -0.75556,1.5836347 0,0 0.4371661,0.6622093 0.4384163,1.1031266 A 0.1658649,0.1658649 0 0 0 2.4587594,4.4449709 c 0,0.091684 0.07168,0.1646146 0.1616979,0.1666984 V 5.1592735 H 3.7252508 V 4.6116693 h 0.00125 c 0.091683,0 0.1654475,-0.074181 0.1654475,-0.1666984 0,-0.092518 -0.073764,-0.1666984 -0.1654475,-0.1666984 h -0.0025 C 3.7256676,3.8369385 4.1670009,3.1755626 4.1670009,3.1755626 3.8681945,2.8767558 3.5731381,2.0799375 3.4114411,1.591928 A 0.22087536,0.22087536 0 0 0 3.2851667,1.1906016 v 2.01455 a 0.22087536,0.22087536 0 1 1 -0.2208754,0 V 1.6315188 Z"
     fill="#ffffff"
     id="path58767"
     style="stroke-width:0.416746" /></svg>

<svg xmlns="http://www.w3.org/2000/svg" xml:space="preserve" width="24" height="24" viewBox="0 0 6.35 6.35"><defs><radialGradient id="a" cx="0" cy="0" r="1" gradientTransform="rotate(90 1.455 1.72) scale(5.82072)" gradientUnits="userSpaceOnUse"><stop stop-color="#9BDCFF"/><stop offset="1" stop-color="#006AE8"/></radialGradient></defs><path fill="url(#a)" fill-rule="evenodd" d="M2.539.295a.312.312 0 0 0 .09-.012 8.37 8.37 0 0 1 1.14.003c.345.026.678.101 1 .224.536.22.903.603 1.1 1.148.114.328.18.665.2 1.012.029.435.019.869-.03 1.302a3.143 3.143 0 0 1-.236.879 1.87 1.87 0 0 1-1.094 1.008c-.409.138-.829.211-1.26.218a5.666 5.666 0 0 1-1.444-.108C1.13 5.773.59 5.239.385 4.366a5.039 5.039 0 0 1-.12-1.194c-.009-.428.037-.85.137-1.266C.617 1.09 1.135.584 1.957.39c.191-.047.385-.079.582-.094Z" clip-rule="evenodd" style="fill:url(#a);stroke-width:.264578"/><path stroke="#fafafa" stroke-opacity=".125" d="M5.938 2.677v.001c.027.427.018.854-.03 1.279a3.01 3.01 0 0 1-.226.84c-.21.454-.547.765-1.017.938a4 4 0 0 1-1.22.21h-.004a5.533 5.533 0 0 1-1.408-.106c-.418-.093-.748-.265-.997-.512-.25-.246-.425-.574-.523-.99a4.907 4.907 0 0 1-.115-1.162V3.17a4.76 4.76 0 0 1 .133-1.23c.102-.389.274-.696.513-.93.24-.233.552-.399.944-.492a3.56 3.56 0 0 1 .556-.09.445.445 0 0 0 .108-.013C3.02.39 3.39.39 3.76.417c.33.026.65.098.96.216.501.206.84.56 1.025 1.069.109.316.173.641.193.975z" style="fill:none;stroke-width:.264578"/><path fill="#fafafa" fill-opacity=".125" fill-rule="evenodd" d="M2.684.53h-.008a.285.285 0 0 1-.083.011 3.39 3.39 0 0 0-.154.016v.655h-.983V.866c-.088.053-.17.112-.246.178v.168h-.166a1.738 1.738 0 0 0-.177.245h.343v.983H.557a4.458 4.458 0 0 0-.028.245h.681v.982H.53c.007.082.016.164.027.246h.653v.983H.87c.052.088.112.17.177.245h.163v.163c.076.066.158.125.246.178v-.34h.983v.648c.081.011.163.02.245.028v-.677h.982v.68c.082-.007.164-.016.246-.028v-.652h.982v.343c.088-.052.17-.111.246-.177V5.14h.165c.065-.075.124-.157.177-.245H5.14v-.983h.655v-.007c.01-.08.017-.16.023-.239H5.14v-.982h.682a3.486 3.486 0 0 0-.025-.245H5.14v-.983h.345a1.698 1.698 0 0 0-.177-.245H5.14v-.168a1.736 1.736 0 0 0-.246-.177v.345h-.982V.553A3.331 3.331 0 0 0 3.667.53v.683h-.983Zm-.246.927h-.982v.983h.982zm1.228 0h-.982v.983h.982zm1.229 0h-.983v.983h.983zM2.438 2.685h-.982v.982h.982zm1.228 0h-.982v.982h.982zm1.229 0h-.983v.982h.983zM2.438 3.913h-.982v.983h.982zm1.228 0h-.982v.983h.982zm1.229 0h-.983v.983h.983z" clip-rule="evenodd" style="stroke-width:.264578"/><path fill="#fff" d="M3.065 1.19a.22.22 0 0 0-.127.402c-.161.488-.456 1.285-.755 1.583 0 0 .437.662.438 1.103a.166.166 0 0 0-.162.167c0 .092.071.165.161.167v.547h1.105v-.547h.002a.166.166 0 0 0 .165-.167.166.166 0 0 0-.165-.167h-.003c.002-.441.443-1.102.443-1.102-.299-.3-.594-1.096-.756-1.584a.22.22 0 0 0-.126-.401v2.014a.22.22 0 1 1-.22 0V1.632Z" style="stroke-width:.416746"/></svg>
